static/images/team/luisa/tribal.svg

<svg xmlns="http://www.w3.org/2000/svg" width="128" height="122" fill="none" viewBox="0 0 128 122"><g clip-path="url(#clip0)"><path fill="#FCDCD9" d="M56.7498 6.33344C39.5898 6.33344 22.8198 6.39344 6.04979 6.27344C3.66979 6.25344 -0.090211 7.26344 0.079789 3.24344C0.119789 2.29344 4.30979 0.773438 6.59979 0.773438C23.2198 0.793437 39.8298 1.10344 56.4498 1.40344C59.2698 1.45344 62.1398 1.57344 64.8698 2.19344C66.3198 2.52344 68.9198 3.34344 68.8198 4.96344C68.7198 6.58344 66.0298 6.63344 64.5698 7.31344C64.0498 7.55344 63.3198 7.35344 62.3698 7.35344C62.3698 15.3034 62.3698 23.0234 62.3698 31.0834C69.9798 31.4234 77.4198 31.7434 84.8598 32.0734C85.8598 32.1134 86.9998 31.8834 87.8198 32.2934C89.1498 32.9534 91.5198 33.4434 91.4698 34.9534C91.4198 36.3434 89.1998 36.9734 87.9598 37.1234C85.2298 37.4534 82.4298 37.2234 78.8698 37.2234C82.1598 42.8234 85.1898 47.5434 87.7298 52.5134C88.8598 54.7234 90.9098 57.7734 89.5598 59.9434C88.3998 61.8034 85.2998 61.2934 83.1598 61.3534C75.5098 61.5834 67.8498 61.6634 60.1998 61.5034C58.4598 61.4634 55.8998 60.6334 55.2798 59.3934C54.6798 58.1934 55.6798 55.6834 56.6998 54.2734C60.7698 48.7034 65.1298 43.3434 69.7998 37.3634C68.1498 37.1234 67.3698 36.9434 66.5798 36.9034C57.4898 36.4834 57.6598 36.4934 57.6598 27.1334C57.6398 20.6734 57.1098 14.2034 56.7498 6.33344ZM62.8798 55.5334C69.9598 55.5334 76.2698 55.5334 82.7298 55.5334C79.8098 50.5734 77.1398 46.0534 74.2298 41.1134C70.3398 46.0534 66.7798 50.5834 62.8798 55.5334Z"/><path fill="#FCDCD9" d="M118.48 115.563C112.4 109.433 107 104.103 101.77 98.5934C100.83 97.6034 99.9001 95.5934 100.3 94.5834C100.78 93.3834 102.69 92.0434 104 92.0234C110.65 91.8834 117.31 92.0134 123.94 92.4234C124.95 92.4834 126.55 94.4634 126.65 95.6634C127.24 102.453 127.51 109.263 127.78 116.083C127.89 118.883 126.55 120.333 123.55 120.333C116.75 120.323 109.95 120.463 103.16 120.563C86.4301 120.813 69.7101 121.073 52.9801 121.323C51.4901 121.343 49.9701 121.383 48.5001 121.203C44.2801 120.683 41.4801 119.103 41.8101 113.973C42.1301 109.013 41.5201 103.993 41.6801 99.0234C41.7201 97.7434 42.4601 95.2834 43.9301 95.2634C45.4301 95.2434 46.1801 97.7034 46.3201 99.0234C46.7201 102.813 46.8501 106.673 46.6201 110.483C46.3801 114.553 48.2101 115.643 51.9401 115.623C68.9101 115.513 85.8701 115.583 102.84 115.583C107.76 115.563 112.67 115.563 118.48 115.563ZM122.31 111.453C121.96 106.073 121.71 102.313 121.44 98.0534C117.16 97.8234 113 97.6035 107.54 97.3235C112.72 102.293 116.95 106.333 122.31 111.453Z"/><path fill="#FCDCD9" d="M43.6199 75.1835C39.3299 74.5335 36.3599 74.3534 33.5399 73.5934C29.5399 72.5134 29.0499 70.6335 31.7999 67.5735C34.6799 64.3735 37.7199 61.3234 41.0499 57.8234C38.9099 57.6134 36.7799 57.7634 34.9099 57.1234C33.1799 56.5334 31.0699 55.3934 30.3999 53.9234C29.9499 52.9234 31.3999 50.6634 32.5099 49.4234C35.4699 46.0834 38.7099 42.9934 42.4099 39.2234C40.0799 39.2234 38.1999 39.2234 36.3099 39.2234C25.8199 39.2134 15.3399 39.3234 4.85994 39.0834C3.41994 39.0534 0.609943 38.1134 0.589943 36.4034C0.569943 34.5934 3.56994 33.4934 5.06994 33.4734C20.0499 33.2734 35.0299 33.3534 50.0099 33.4534C50.9999 33.4634 52.6199 34.0634 52.8199 34.7334C53.1299 35.7334 52.8099 37.4034 52.0999 38.1434C47.8599 42.5634 43.4299 46.7934 38.4199 51.7134C41.6099 52.0534 44.0399 52.0934 46.3699 52.6034C50.1899 53.4334 50.8699 55.5634 48.2699 58.5234C45.2199 62.0034 41.9899 65.3234 38.4999 69.0834C41.6099 69.5534 44.5099 69.8134 47.3199 70.4635C51.1299 71.3535 51.9299 73.8035 49.1699 76.5335C44.7999 80.8535 40.2499 85.0135 35.5599 88.9935C34.6399 89.7734 32.2499 90.6635 31.2899 89.5735C30.3299 88.4835 31.5099 86.3034 32.3799 85.4134C35.6399 82.1134 39.1999 79.1535 43.6199 75.1835Z"/><path fill="#FCDCD9" d="M87.6999 87.3834C87.6999 92.3834 87.8099 97.3834 87.6599 102.373C87.5499 106.123 86.3099 108.473 81.6099 108.243C75.3099 107.923 68.9699 108.573 62.6399 108.683C58.7699 108.753 57.2199 107.103 57.3199 102.833C57.5699 92.3934 57.0499 81.9434 57.1899 71.5034C57.2099 70.1734 59.2999 67.7634 60.4699 67.7434C68.5999 67.5934 76.7499 67.7834 84.8599 68.3234C85.9599 68.3934 87.6599 70.9334 87.7799 72.4234C88.1499 77.3934 87.9199 82.4034 87.9199 87.4034C87.8499 87.3834 87.7699 87.3834 87.6999 87.3834ZM63.0699 73.5034C63.0699 83.7134 63.0699 93.3934 63.0699 102.843C65.7599 102.843 67.9899 102.843 70.4099 102.843C70.4099 92.8834 70.4099 83.3234 70.4099 73.5034C67.9199 73.5034 65.6699 73.5034 63.0699 73.5034ZM82.3799 102.343C82.3799 92.6134 82.3799 83.1134 82.3799 73.3634C80.2199 73.3634 78.2999 73.3634 75.8599 73.3634C75.8599 83.2234 75.8599 92.8534 75.8599 102.703C78.2399 102.573 80.1899 102.463 82.3799 102.343Z"/><path fill="#FCDCD9" d="M9.48977 107.173C6.60977 104.033 3.77977 101.233 1.32977 98.1234C0.559772 97.1534 -0.440228 94.8934 0.619772 93.9434C1.71977 92.9634 3.77977 94.3134 4.84977 95.1534C7.71977 97.3834 10.2998 99.9834 13.1098 102.533C16.0098 100.153 18.5598 97.7534 21.4498 95.8534C22.4498 95.2034 24.8398 94.7234 25.7298 95.8634C26.5598 96.9234 25.5498 98.8734 24.7598 99.7334C22.6398 102.033 20.1398 103.983 16.7798 106.963C19.4598 109.303 22.1298 111.233 24.2498 113.653C25.3098 114.863 27.0898 117.313 25.9098 118.623C24.6498 120.023 21.8198 118.423 20.4598 117.403C18.1298 115.663 16.3498 113.183 14.2098 110.863C11.3098 113.463 9.13977 115.783 6.58977 117.553C5.10977 118.583 2.24977 119.773 1.33977 119.103C-1.44023 117.023 0.999772 114.993 2.55977 113.423C4.75977 111.183 7.20977 109.203 9.48977 107.173Z"/><path fill="#FCDCD9" d="M24.7099 66.4235C24.7099 72.7435 24.8099 79.0634 24.6099 85.3734C24.5699 86.4634 23.7999 88.5734 22.4999 88.5834C21.1899 88.6034 20.3099 86.4734 20.2999 85.4034C20.0999 72.7634 20.0499 60.1135 20.1699 47.4735C20.1799 46.4135 21.1499 44.3035 22.4799 44.3135C23.7899 44.3235 24.6699 46.3934 24.7099 47.4634C24.9199 53.7834 24.8099 60.1035 24.8099 66.4235C24.7799 66.4235 24.7499 66.4235 24.7099 66.4235Z"/><path fill="#FCDCD9" d="M0.10994 48.4635C0.16994 47.0535 0.89994 44.3235 2.51994 44.3335C4.10994 44.3435 4.83994 47.0635 4.85994 48.4435C4.96994 60.5735 4.88994 72.7135 4.65994 84.8535C4.63994 86.1035 3.97994 88.5635 2.52994 88.5735C1.08994 88.5835 0.409941 86.1435 0.35994 84.8835C0.139941 78.7435 -0.16006 54.4435 0.10994 48.4635Z"/><path fill="#FCDCD9" d="M15.5102 84.8434C15.4502 86.1334 14.3302 88.6834 12.7702 88.5834C11.3202 88.4834 10.7002 86.0734 10.6802 84.8134C10.5702 72.7134 10.6002 60.6034 10.8302 48.4934C10.8602 47.0934 11.4602 44.3034 13.0502 44.3234C14.6302 44.3434 15.0902 47.1034 15.1402 48.5434C15.3802 54.4934 15.8002 78.7234 15.5102 84.8434Z"/><path fill="#FCDCD9" d="M99.72 52.3534C99.41 53.5934 98.85 55.6534 97.49 55.7334C96.02 55.8234 94.74 53.5734 94.69 52.4334C94.24 42.1334 94 31.8234 93.96 21.5134C93.96 20.2434 94.81 17.6834 96.32 17.7034C97.97 17.7334 98.73 20.5034 98.77 21.9434C99.01 30.4234 100.11 50.7934 99.72 52.3534Z"/><path fill="#FCDCD9" d="M107.87 22.8234C107.91 21.2234 108.31 18.1534 110.07 18.0634C111.82 17.9734 112.61 20.9934 112.71 22.5434C113.29 30.9834 113.5 39.4534 113.82 47.9234C113.85 48.7534 114.03 49.7334 113.67 50.3834C112.74 52.0334 112.36 55.2834 110.46 55.1034C108.67 54.9334 108.97 51.8234 108.3 50.1534C108.14 49.7234 107.65 31.4334 107.87 22.8234Z"/><path fill="#FCDCD9" d="M111.26 86.3134C107.12 86.3134 102.95 86.5434 98.8398 86.1834C97.4298 86.0634 94.7398 85.1634 94.7998 83.5334C94.8598 82.0534 97.3398 81.4534 98.6598 81.3934C106.44 81.0034 114.24 80.7134 122.02 80.8634C123.84 80.8934 127.48 81.7234 127.42 83.7934C127.36 85.7334 124.01 86.0634 122.2 86.2634C118.59 86.6534 114.92 86.3834 111.27 86.3834C111.26 86.3534 111.26 86.3334 111.26 86.3134Z"/><path fill="#FCDCD9" d="M110.93 75.5134C106.79 75.5134 102.64 75.7034 98.5301 75.4034C97.2501 75.3134 94.8901 74.5234 94.8501 73.0434C94.8101 71.5534 97.2001 70.5134 98.4201 70.4734C106.35 70.2034 114.3 70.1234 122.24 70.3934C123.72 70.4434 126.74 71.5934 126.58 73.3734C126.43 75.1234 123.46 75.4334 121.82 75.5834C118.22 75.9234 114.56 75.6834 110.93 75.6834C110.93 75.6234 110.93 75.5734 110.93 75.5134Z"/><path fill="#FCDCD9" d="M110.67 65.6334C106.67 65.6334 102.66 65.7834 98.68 65.5334C97.54 65.4634 95.55 64.8334 95.39 63.5434C95.22 62.1934 97.23 60.7234 98.19 60.6934C107.01 60.4034 115.83 60.3534 124.65 60.4834C125.43 60.4934 126.84 62.3034 126.75 63.1634C126.66 64.0334 125.12 65.3834 124.16 65.4334C119.68 65.6734 115.17 65.5434 110.67 65.5434C110.67 65.5734 110.67 65.6034 110.67 65.6334Z"/><path fill="#FCDCD9" d="M36.55 108.483C36.55 111.473 36.79 114.493 36.42 117.443C36.29 118.473 35.05 120.343 33.73 120.253C32.56 120.173 31.75 118.423 31.69 117.443C31.3 111.473 31.02 105.483 31.12 99.5134C31.14 98.2134 32.23 95.5334 33.82 95.6534C35.28 95.7534 35.62 98.1734 35.82 99.5334C36.25 102.483 36.22 105.493 36.38 108.483C36.43 108.483 36.49 108.483 36.55 108.483Z"/><path fill="#FCDCD9" d="M48.4101 83.9834C50.6301 84.0634 50.9701 86.8634 50.9601 87.9134C50.9601 88.7234 49.2001 90.3034 48.4601 90.1734C47.3201 89.9634 45.8001 88.7334 45.5601 87.6834C45.3901 86.9034 46.1701 83.9034 48.4101 83.9834Z"/></g><defs><clipPath id="clip0"><rect width="127.8" height="120.57" y=".773" fill="#fff"/></clipPath></defs></svg>

<svg fill="none" height="122" width="128" xmlns="http://www.w3.org/2000/svg" xmlns:xlink="http://www.w3.org/1999/xlink"><clipPath id="a"><path d="m0 .773h127.8v120.57h-127.8z"/></clipPath><g clip-path="url(#a)" fill="#fcdcd9"><path d="m56.75 6.333c-17.16 0-33.93.06-50.7-.06-2.38-.02-6.14.99-5.97-3.03.04-.95 4.23-2.47 6.52-2.47 16.62.02 33.23.33 49.85.63 2.82.05 5.69.17 8.42.79 1.45.33 4.05 1.15 3.95 2.77s-2.79 1.67-4.25 2.35c-.52.24-1.25.04-2.2.04v23.73c7.61.34 15.05.66 22.49.99 1 .04 2.14-.19 2.96.22 1.33.66 3.7 1.15 3.65 2.66-.05 1.39-2.27 2.02-3.51 2.17-2.73.33-5.53.1-9.09.1 3.29 5.6 6.32 10.32 8.86 15.29 1.13 2.21 3.18 5.26 1.83 7.43-1.16 1.86-4.26 1.35-6.4 1.41-7.65.23-15.31.31-22.96.15-1.74-.04-4.3-.87-4.92-2.11-.6-1.2.4-3.71 1.42-5.12 4.07-5.57 8.43-10.93 13.1-16.91-1.65-.24-2.43-.42-3.22-.46-9.09-.42-8.92-.41-8.92-9.77-.02-6.46-.55-12.93-.91-20.8zm6.13 49.2h19.85c-2.92-4.96-5.59-9.48-8.5-14.42-3.89 4.94-7.45 9.47-11.35 14.42zm55.6 60.03c-6.08-6.13-11.48-11.46-16.71-16.97-.94-.99-1.87-3-1.47-4.01.48-1.2 2.39-2.54 3.7-2.56 6.65-.14 13.31-.01 19.94.4 1.01.06 2.61 2.04 2.71 3.24.59 6.79.86 13.6 1.13 20.42.11 2.8-1.23 4.25-4.23 4.25-6.8-.01-13.6.13-20.39.23-16.73.25-33.45.51-50.18.76-1.49.02-3.01.06-4.48-.12-4.22-.52-7.02-2.1-6.69-7.23.32-4.96-.29-9.98-.13-14.95.04-1.28.78-3.74 2.25-3.76 1.5-.02 2.25 2.44 2.39 3.76.4 3.79.53 7.65.3 11.46-.24 4.07 1.59 5.16 5.32 5.14 16.97-.11 33.93-.04 50.9-.04 4.92-.02 9.83-.02 15.64-.02zm3.83-4.11c-.35-5.38-.6-9.14-.87-13.4-4.28-.23-8.44-.45-13.9-.73 5.18 4.97 9.41 9.01 14.77 14.13z"/><path d="m43.62 75.183c-4.29-.65-7.26-.83-10.08-1.59-4-1.08-4.49-2.96-1.74-6.02 2.88-3.2 5.92-6.25 9.25-9.75-2.14-.21-4.27-.06-6.14-.7-1.73-.59-3.84-1.73-4.51-3.2-.45-1 1-3.26 2.11-4.5 2.96-3.34 6.2-6.43 9.9-10.2h-6.1c-10.49-.01-20.97.1-31.45-.14-1.44-.03-4.25-.97-4.27-2.68-.02-1.81 2.98-2.91 4.48-2.93 14.98-.2 29.96-.12 44.94-.02.99.01 2.61.61 2.81 1.28.31 1-.01 2.67-.72 3.41-4.24 4.42-8.67 8.65-13.68 13.57 3.19.34 5.62.38 7.95.89 3.82.83 4.5 2.96 1.9 5.92-3.05 3.48-6.28 6.8-9.77 10.56 3.11.47 6.01.73 8.82 1.38 3.81.89 4.61 3.34 1.85 6.07a243.19 243.19 0 0 1 -13.61 12.46c-.92.78-3.31 1.67-4.27.58s.22-3.27 1.09-4.16c3.26-3.3 6.82-6.26 11.24-10.23zm44.08 12.2c0 5 .11 10-.04 14.99-.11 3.75-1.35 6.1-6.05 5.87-6.3-.32-12.64.33-18.97.44-3.87.07-5.42-1.58-5.32-5.85.25-10.44-.27-20.89-.13-31.33.02-1.33 2.11-3.74 3.28-3.76 8.13-.15 16.28.04 24.39.58 1.1.07 2.8 2.61 2.92 4.1.37 4.97.14 9.98.14 14.98-.07-.02-.15-.02-.22-.02zm-24.63-13.88v29.34h7.34v-29.34zm19.31 28.84v-28.98h-6.52v29.34c2.38-.13 4.33-.24 6.52-.36zm-72.89 4.83c-2.88-3.14-5.71-5.94-8.16-9.05-.77-.97-1.77-3.23-.71-4.18 1.1-.98 3.16.37 4.23 1.21 2.87 2.23 5.45 4.83 8.26 7.38 2.9-2.38 5.45-4.78 8.34-6.68 1-.65 3.39-1.13 4.28.01.83 1.06-.18 3.01-.97 3.87-2.12 2.3-4.62 4.25-7.98 7.23 2.68 2.34 5.35 4.27 7.47 6.69 1.06 1.21 2.84 3.66 1.66 4.97-1.26 1.4-4.09-.2-5.45-1.22-2.33-1.74-4.11-4.22-6.25-6.54-2.9 2.6-5.07 4.92-7.62 6.69-1.48 1.03-4.34 2.22-5.25 1.55-2.78-2.08-.34-4.11 1.22-5.68 2.2-2.24 4.65-4.22 6.93-6.25z"/><path d="m24.71 66.424c0 6.32.1 12.64-.1 18.95-.04 1.09-.81 3.2-2.11 3.21-1.31.02-2.19-2.11-2.2-3.18-.2-12.64-.25-25.29-.13-37.93.01-1.06.98-3.17 2.31-3.16 1.31.01 2.19 2.08 2.23 3.15.21 6.32.1 12.64.1 18.96zm-24.6-17.96c.06-1.41.79-4.14 2.41-4.13 1.59.01 2.32 2.73 2.34 4.11.11 12.13.03 24.27-.2 36.41-.02 1.25-.68 3.71-2.13 3.72-1.44.01-2.12-2.43-2.17-3.69-.22-6.14-.52-30.44-.25-36.42zm15.4 36.38c-.06 1.29-1.18 3.84-2.74 3.74-1.45-.1-2.07-2.51-2.09-3.77-.11-12.1-.08-24.21.15-36.32.03-1.4.63-4.19 2.22-4.17 1.58.02 2.04 2.78 2.09 4.22.24 5.95.66 30.18.37 36.3zm84.21-32.49c-.31 1.24-.87 3.3-2.23 3.38-1.47.09-2.75-2.16-2.8-3.3-.45-10.3-.69-20.61-.73-30.92 0-1.27.85-3.83 2.36-3.81 1.65.03 2.41 2.8 2.45 4.24.24 8.48 1.34 28.85.95 30.41zm8.15-29.53c.04-1.6.44-4.67 2.2-4.76 1.75-.09 2.54 2.93 2.64 4.48.58 8.44.79 16.91 1.11 25.38.03.83.21 1.81-.15 2.46-.93 1.65-1.31 4.9-3.21 4.72-1.79-.17-1.49-3.28-2.16-4.95-.16-.43-.65-18.72-.43-27.33zm3.39 63.49c-4.14 0-8.31.23-12.42-.13-1.41-.12-4.1-1.02-4.04-2.65.06-1.48 2.54-2.08 3.86-2.14 7.78-.39 15.58-.68 23.36-.53 1.82.03 5.46.86 5.4 2.93-.06 1.94-3.41 2.27-5.22 2.47-3.61.39-7.28.12-10.93.12-.01-.03-.01-.05-.01-.07zm-.33-10.8c-4.14 0-8.29.19-12.4-.11-1.28-.09-3.64-.88-3.68-2.36-.04-1.49 2.35-2.53 3.57-2.57 7.93-.27 15.88-.35 23.82-.08 1.48.05 4.5 1.2 4.34 2.98-.15 1.75-3.12 2.06-4.76 2.21-3.6.34-7.26.1-10.89.1zm-.26-9.88c-4 0-8.01.15-11.99-.1-1.14-.07-3.13-.7-3.29-1.99-.17-1.35 1.84-2.82 2.8-2.85 8.82-.29 17.64-.34 26.46-.21.78.01 2.19 1.82 2.1 2.68-.09.87-1.63 2.22-2.59 2.27-4.48.24-8.99.11-13.49.11zm-74.12 42.849c0 2.99.24 6.01-.13 8.96-.13 1.03-1.37 2.9-2.69 2.81-1.17-.08-1.98-1.83-2.04-2.81-.39-5.97-.67-11.96-.57-17.93.02-1.3 1.11-3.98 2.7-3.86 1.46.1 1.8 2.52 2 3.88.43 2.95.4 5.96.56 8.95zm11.86-24.5c2.22.08 2.56 2.88 2.55 3.93 0 .81-1.76 2.39-2.5 2.26-1.14-.21-2.66-1.44-2.9-2.49-.17-.78.61-3.78 2.85-3.7z"/></g></svg>
